X:1
T:Caroline of Edinburgh Town
C:as sung by Sally Sloane
L:1/4
M:3/4
K:C
G,|G,2B,|D2G|G3|C2D|E2G|F2E|D3-|DB,B,|
C2B,|G,2A,|B,/C/D2|-DB,2|C2B,|G,2G,|G,3-|G,3|]
w:love-er|ly young|Car-o-line |-of|Ed-in|burgh |Town|
